dist/assets/images/icons/pdf-download.svg

<svg width="24" height="24" viewBox="0 0 24 24" fill="none" xmlns="http://www.w3.org/2000/svg">
<path d="M17.852 15.06C17.8389 14.9644 17.762 14.8444 17.6795 14.7637C17.4433 14.5312 16.9239 14.4094 16.1326 14.3981C15.5964 14.3925 14.9514 14.4394 14.2726 14.535C13.9689 14.3606 13.6558 14.1694 13.4101 13.9387C12.7483 13.3219 12.197 12.465 11.852 11.5219C11.8745 11.4337 11.8933 11.3569 11.912 11.2781C11.912 11.2781 12.2833 9.16312 12.1858 8.44687C12.1726 8.34937 12.1633 8.32125 12.137 8.24438L12.1051 8.16187C12.0039 7.9275 11.8051 7.68 11.4939 7.69312L11.3101 7.6875H11.3064C10.9576 7.6875 10.6764 7.86563 10.6014 8.13C10.3764 8.9625 10.6089 10.2094 11.0308 11.8219L10.922 12.0844C10.6201 12.8231 10.2414 13.5656 9.90765 14.22L9.86452 14.3044C9.51202 14.9925 9.19327 15.5775 8.90265 16.0725L8.60452 16.23C8.58202 16.2412 8.07015 16.5131 7.95015 16.5844C6.93202 17.1937 6.25702 17.8837 6.14452 18.4312C6.1089 18.6075 6.13515 18.8306 6.31702 18.9337L6.60577 19.08C6.7314 19.1419 6.86452 19.1737 6.99952 19.1737C7.72515 19.1737 8.56702 18.27 9.72765 16.245C11.0664 15.81 12.5926 15.4462 13.9295 15.2475C14.9476 15.8194 16.2001 16.2187 16.9914 16.2187C17.132 16.2187 17.2539 16.2056 17.3514 16.1794C17.5033 16.1381 17.6308 16.0519 17.7095 15.9356C17.8633 15.705 17.8933 15.3862 17.852 15.06ZM6.84202 18.6244C6.97327 18.2625 7.49827 17.5462 8.27265 16.9125C8.3214 16.8731 8.4414 16.7606 8.55015 16.6556C7.74015 17.9475 7.19827 18.4612 6.84202 18.6244ZM11.4283 8.0625C11.6608 8.0625 11.7939 8.64937 11.8051 9.20062C11.8164 9.75187 11.687 10.1381 11.5276 10.425C11.3945 10.0012 11.3308 9.33375 11.3308 8.89688C11.3308 8.89688 11.3214 8.0625 11.4283 8.0625ZM10.0595 15.5887C10.2226 15.2981 10.3914 14.9906 10.5639 14.6662C10.9858 13.8694 11.252 13.2469 11.4489 12.735C11.8426 13.4512 12.3339 14.0606 12.9095 14.5481C12.9826 14.6081 13.0595 14.67 13.1383 14.7319C11.9664 14.9625 10.952 15.2456 10.0595 15.5887ZM17.4526 15.5231C17.3814 15.5662 17.177 15.5925 17.0458 15.5925C16.622 15.5925 16.0951 15.3994 15.3583 15.0825C15.6414 15.0619 15.902 15.0506 16.1345 15.0506C16.5601 15.0506 16.6858 15.0487 17.1039 15.1556C17.5201 15.2625 17.5258 15.4781 17.4526 15.5231Z" fill="#FF402F"/>
<path d="M19.5 15C17.0147 15 15 17.0147 15 19.5C15 21.9853 17.0147 24 19.5 24C21.9853 24 24 21.9853 24 19.5C24 17.0147 21.9853 15 19.5 15ZM21.5404 18.1852L21.5192 18.2183L19.9757 20.3629C19.8729 20.5252 19.6929 20.625 19.5 20.625C19.3071 20.625 19.1271 20.5252 19.0245 20.3631L17.4596 18.1854C17.3604 18.0118 17.3614 17.7968 17.4615 17.6241C17.5618 17.4512 17.7484 17.3439 17.9482 17.3439H18.75V16.125C18.75 15.8149 19.0024 15.5625 19.3125 15.5625H19.6875C19.9976 15.5625 20.25 15.8149 20.25 16.125V17.3438H21.0518C21.2514 17.3438 21.4382 17.451 21.5385 17.6239C21.6386 17.7966 21.6396 18.0118 21.5404 18.1852Z" fill="#FF402F"/>
<path d="M15.7496 23.6152L15.7402 23.6246H15.7496V23.6152Z" fill="#FF9A30"/>
<path d="M21.3746 14.4371V14.4277L21.3652 14.4371H21.3746Z" fill="#FF9A30"/>
<path d="M20.8258 8.29556L13.4544 0.924187C13.1004 0.570187 12.6294 0.375 12.1288 0.375H4.5C3.46613 0.375 2.625 1.21613 2.625 2.25V21.75C2.625 22.7839 3.46613 23.625 4.5 23.625H15.7406L14.9906 22.875H4.5C3.87956 22.875 3.375 22.3704 3.375 21.75V2.25C3.375 1.62956 3.87956 1.125 4.5 1.125H12.1288C12.4294 1.125 12.7118 1.242 12.9242 1.45444L20.2956 8.82581C20.5048 9.03525 20.625 9.32512 20.625 9.62119V13.6781L21.375 14.4281V9.62119C21.375 9.12056 21.18 8.64975 20.8258 8.29556Z" fill="#FF402F"/>
<path d="M21.3656 14.4371L21.375 14.4277L20.625 13.6777" fill="white"/>
</svg>

<svg width="24" height="24" fill="none" xmlns="http://www.w3.org/2000/svg"><path d="M17.852 15.06a.592.592 0 00-.172-.296c-.237-.233-.756-.355-1.547-.366a12.788 12.788 0 00-1.86.137c-.304-.174-.617-.366-.863-.596-.662-.617-1.213-1.474-1.558-2.417l.06-.244s.371-2.115.274-2.831a.823.823 0 00-.049-.203l-.032-.082c-.101-.235-.3-.482-.611-.469l-.184-.005h-.004c-.348 0-.63.178-.705.442-.225.832.008 2.08.43 3.692l-.109.262c-.302.74-.68 1.482-1.014 2.136l-.043.084a35.424 35.424 0 01-.962 1.769l-.298.157c-.023.011-.535.283-.655.354-1.018.61-1.693 1.3-1.805 1.847-.036.177-.01.4.172.503l.289.146a.887.887 0 00.394.094c.725 0 1.567-.904 2.728-2.929a27.131 27.131 0 014.202-.998c1.018.572 2.27.972 3.061.972.141 0 .263-.013.36-.04a.625.625 0 00.358-.243c.154-.231.184-.55.143-.876zm-11.01 3.564c.131-.361.656-1.078 1.43-1.711.05-.04.17-.152.278-.257-.81 1.292-1.352 1.805-1.708 1.968zm4.586-10.561c.233 0 .366.586.377 1.138.011.55-.118.937-.277 1.224-.133-.424-.197-1.091-.197-1.528 0 0-.01-.835.097-.835zm-1.369 7.526c.164-.29.332-.598.505-.923.422-.797.688-1.42.885-1.931a6.388 6.388 0 001.46 1.813c.074.06.15.122.23.184-1.173.23-2.187.514-3.08.857zm7.394-.066c-.072.043-.276.07-.407.07-.424 0-.95-.194-1.688-.51.283-.021.544-.032.776-.032.426 0 .552-.002.97.105.416.106.422.322.349.367z" fill="#FF402F"/><path d="M19.5 15a4.5 4.5 0 100 9 4.5 4.5 0 000-9zm2.04 3.185l-.02.033-1.544 2.145a.565.565 0 01-.951 0l-1.565-2.178a.564.564 0 01.488-.841h.802v-1.219c0-.31.252-.563.563-.563h.375c.31 0 .562.253.562.563v1.219h.802a.565.565 0 01.488.841z" fill="#FF402F"/><path d="M15.75 23.615l-.01.01h.01v-.01zm5.625-9.178v-.01l-.01.01h.01z" fill="#FF9A30"/><path d="M20.826 8.296L13.454.924A1.863 1.863 0 0012.13.375H4.5A1.877 1.877 0 002.625 2.25v19.5c0 1.034.841 1.875 1.875 1.875h11.24l-.75-.75H4.5c-.62 0-1.125-.505-1.125-1.125V2.25c0-.62.505-1.125 1.125-1.125h7.629c.3 0 .583.117.795.33l7.372 7.37c.209.21.329.5.329.796v4.057l.75.75V9.621c0-.5-.195-.971-.55-1.325z" fill="#FF402F"/><path d="M21.366 14.437l.009-.01-.75-.75" fill="#fff"/></svg>
